src/assets/icons/months,simple,december-12.svg

<svg width="48" height="48" viewBox="0 0 48 48" fill="none" xmlns="http://www.w3.org/2000/svg">
<rect opacity="0.2" x="5" y="5" width="38" height="38" rx="4" fill="black"/>
<path d="M5 13C5 9.22876 5 7.34315 6.17157 6.17157C7.34315 5 9.22876 5 13 5H35C38.7712 5 40.6569 5 41.8284 6.17157C43 7.34315 43 9.22876 43 13V15H5V13Z" fill="black"/>
<path d="M12.402 35C15.9474 35 18.0952 32.8068 18.0952 29.1705C18.0952 25.5455 15.9474 23.3636 12.4361 23.3636H8.27699V35H12.402ZM10.7372 32.892V25.4716H12.3054C14.4872 25.4716 15.6406 26.5852 15.6406 29.1705C15.6406 31.767 14.4872 32.892 12.2997 32.892H10.7372ZM19.9176 35H27.7812V32.9716H22.3778V30.1932H27.3551V28.1648H22.3778V25.392H27.7585V23.3636H19.9176V35ZM39.9815 27.4375C39.6577 24.75 37.6236 23.2045 34.9304 23.2045C31.8565 23.2045 29.5099 25.375 29.5099 29.1818C29.5099 32.9773 31.8168 35.1591 34.9304 35.1591C37.9134 35.1591 39.7145 33.1761 39.9815 31.0341L37.4929 31.0227C37.2599 32.267 36.2827 32.983 34.9702 32.983C33.2031 32.983 32.0043 31.6705 32.0043 29.1818C32.0043 26.7614 33.1861 25.3807 34.9872 25.3807C36.3338 25.3807 37.3054 26.1591 37.4929 27.4375H39.9815Z" fill="black"/>
</svg>

<svg xmlns="http://www.w3.org/2000/svg" width="48" height="48" fill="none" viewBox="0 0 48 48">
  <rect width="38" height="38" x="5" y="5" fill="#000" opacity=".2" rx="4"/>
  <path fill="#000" d="M5 13c0-3.771 0-5.657 1.172-6.828C7.343 5 9.229 5 13 5h22c3.771 0 5.657 0 6.828 1.172C43 7.343 43 9.229 43 13v2H5v-2zM12.402 35c3.545 0 5.693-2.193 5.693-5.83 0-3.625-2.148-5.806-5.659-5.806H8.277V35h4.125zm-1.665-2.108v-7.42h1.568c2.182 0 3.336 1.113 3.336 3.698 0 2.597-1.154 3.722-3.341 3.722h-1.563zM19.917 35h7.864v-2.028h-5.403v-2.779h4.977v-2.028h-4.977v-2.773h5.38v-2.028h-7.84V35zm20.064-7.563c-.323-2.687-2.357-4.233-5.05-4.233-3.074 0-5.421 2.171-5.421 5.978 0 3.795 2.307 5.977 5.42 5.977 2.983 0 4.785-1.983 5.051-4.125l-2.488-.011c-.233 1.244-1.21 1.96-2.523 1.96-1.767 0-2.966-1.312-2.966-3.801 0-2.42 1.182-3.801 2.983-3.801 1.347 0 2.318.778 2.506 2.056h2.488z"/>
</svg>
